_includes/icons/color-graduation-cap.svg

<svg fill="#666" height="50" viewBox="0 0 48 48" width="50" xmlns="http://www.w3.org/2000/svg"><path d="m9 20h30v13h-30z" fill="#37474f"/><path d="m39 33c0-3.3125-6.714844-6-15-6s-15 2.6875-15 6 6.714844 6 15 6 15-2.6875 15-6z" fill="#37474f"/><path d="m23.101563 8.199219-22.5 9.902344c-.800782.398437-.800782 1.5 0 1.898437l22.5 9.898438c.597656.203125 1.199218.203125 1.796875 0l22.5-9.898438c.800781-.398437.800781-1.5 0-1.898437l-22.5-9.902344c-.597657-.300781-1.199219-.300781-1.796875 0z" fill="#78909c"/><g fill="#37474f"><path d="m43.199219 20.398438-20-3.398438c-.5-.101562-1.097656.300781-1.199219.800781-.101562.5.300781 1.097657.800781 1.199219l19.199219 3.199219v14.800781c0 .601563.398438 1 1 1 .601563 0 1-.398437 1-1v-15.601562c0-.5-.398437-.898438-.800781-1z"/><path d="m45 37c0 1.105469-.894531 2-2 2s-2-.894531-2-2 .894531-2 2-2 2 .894531 2 2z"/><path d="m46 40c0 1.699219-3 6-3 6s-3-4.300781-3-6 1.300781-3 3-3 3 1.300781 3 3z"/></g></svg>

<svg xmlns="http://www.w3.org/2000/svg" viewBox="0 0 48 48" width="50" height="50" fill="#666"><path d="M 9 20 L 39 20 L 39 33 L 9 33 Z" fill="#37474f"/><path d="M 39 33 C 39 29.6875 32.285156 27 24 27 C 15.714844 27 9 29.6875 9 33 C 9 36.3125 15.714844 39 24 39 C 32.285156 39 39 36.3125 39 33 Z" fill="#37474f"/><path d="M 23.101563 8.199219 L 0.601563 18.101563 C -0.199219 18.5 -0.199219 19.601563 0.601563 20 L 23.101563 29.898438 C 23.699219 30.101563 24.300781 30.101563 24.898438 29.898438 L 47.398438 20 C 48.199219 19.601563 48.199219 18.5 47.398438 18.101563 L 24.898438 8.199219 C 24.300781 7.898438 23.699219 7.898438 23.101563 8.199219 Z" fill="#78909c"/><path d="M 43.199219 20.398438 L 23.199219 17 C 22.699219 16.898438 22.101563 17.300781 22 17.800781 C 21.898438 18.300781 22.300781 18.898438 22.800781 19 L 42 22.199219 L 42 37 C 42 37.601563 42.398438 38 43 38 C 43.601563 38 44 37.601563 44 37 L 44 21.398438 C 44 20.898438 43.601563 20.5 43.199219 20.398438 Z" fill="#37474f"/><path d="M 45 37 C 45 38.105469 44.105469 39 43 39 C 41.894531 39 41 38.105469 41 37 C 41 35.894531 41.894531 35 43 35 C 44.105469 35 45 35.894531 45 37 Z" fill="#37474f"/><path d="M 46 40 C 46 41.699219 43 46 43 46 C 43 46 40 41.699219 40 40 C 40 38.300781 41.300781 37 43 37 C 44.699219 37 46 38.300781 46 40 Z" fill="#37474f"/></svg>
